Adwaita++/mimetypes/scalable/gdslides.svg

<svg height="256" viewBox="0 0 67.73 67.73" width="256" xmlns="http://www.w3.org/2000/svg" xmlns:xlink="http://www.w3.org/1999/xlink">
  <filter id="filter16020-3" color-interpolation-filters="sRGB" height="1.021433" width="1.027265" x="-.013633" y="-.010717">
    <feGaussianBlur stdDeviation="2.0004419"/>
  </filter>
  <g enable-background="new" stroke-width=".25">
    <g enable-background="new" stroke-width=".25" transform="matrix(.13297834 0 0 .13297834 .605824 28.61487660106)">
      <path d="m111.82842-178.55025h200l120.17158 119.671571.005 296.240039c.00031 17.728-14.44878 32.08839-32.17678 32.08839h-288c-17.72799 0-31.999992-14.272-31.999992-32v-384c0-17.728 14.272002-32 31.999992-32z" filter="url(#filter16020-3)" opacity=".4"/>
      <path d="m111.82842-179.67158h200l120.17158 119.67158.005 296.24003c.00031 17.728-14.44878 32.08839-32.17678 32.08839h-288c-17.727992 0-31.999992-14.272-31.999992-32v-384c0-17.728 14.272-32 31.999992-32z" fill="#f6f5f4"/>
      <path d="m311.82842-175.69243v88.000007c0 17.728 14.44211 31.693795 32.17011 31.693795l88.00147-.022223v-3.979149z" opacity=".25"/>
      <path d="m311.82842-179.67158v88.000008c0 17.728 14.44211 31.693795 32.17011 31.693795l88.00147-.022223z" fill="#deddda"/>
    </g>
    <g stroke="#204a87" stroke-width=".007801" transform="matrix(.13297834 0 0 .13297834 7.29882996863 23.0517570024)">
      <path d="m274.32079 95.877213a77.328384 77.328384 0 0 1 -47.7361 71.442107 77.328384 77.328384 0 0 1 -84.27171-16.76268 77.328384 77.328384 0 0 1 -16.76269-84.27172 77.328384 77.328384 0 0 1 71.44211-47.736092v77.328385z" fill="#4a86cf"/>
      <path d="m214.17998 1.3612366a77.328384 77.328384 0 0 1 77.32838 77.3283844h-77.32838z" fill="#50db81"/>
    </g>
  </g>
</svg>

<?xml version="1.0" encoding="UTF-8" standalone="no"?>
<svg
   xmlns:dc="http://purl.org/dc/elements/1.1/"
   xmlns:cc="http://creativecommons.org/ns#"
   xmlns:rdf="http://www.w3.org/1999/02/22-rdf-syntax-ns#"
   xmlns:svg="http://www.w3.org/2000/svg"
   xmlns="http://www.w3.org/2000/svg"
   xmlns:sodipodi="http://sodipodi.sourceforge.net/DTD/sodipodi-0.dtd"
   xmlns:inkscape="http://www.inkscape.org/namespaces/inkscape"
   width="256"
   height="256"
   version="1.1"
   viewBox="0 0 67.73 67.73"
   id="svg37"
   sodipodi:docname="gdslides.svg"
   inkscape:version="0.92.3 (2405546, 2018-03-11)">
  <metadata
     id="metadata41">
    <rdf:RDF>
      <cc:Work
         rdf:about="">
        <dc:format>image/svg+xml</dc:format>
        <dc:type
           rdf:resource="http://purl.org/dc/dcmitype/StillImage" />
        <dc:title />
      </cc:Work>
    </rdf:RDF>
  </metadata>
  <sodipodi:namedview
     pagecolor="#ffffff"
     bordercolor="#666666"
     borderopacity="1"
     objecttolerance="10"
     gridtolerance="10"
     guidetolerance="10"
     inkscape:pageopacity="0"
     inkscape:pageshadow="2"
     inkscape:window-width="1920"
     inkscape:window-height="1009"
     id="namedview39"
     showgrid="false"
     inkscape:zoom="3.6304347"
     inkscape:cx="32.583328"
     inkscape:cy="125"
     inkscape:window-x="0"
     inkscape:window-y="34"
     inkscape:window-maximized="1"
     inkscape:current-layer="g17498" />
  <defs
     id="defs17">
    <linearGradient
       id="linearGradient4226"
       x1="529.655"
       x2="-35.31"
       y1="401.584"
       y2="119.093"
       gradientTransform="matrix(0 -.11988932 .11988589 0 .36278001 292.54831)"
       gradientUnits="userSpaceOnUse">
      <stop
         style="stop-color:#f2f2f2"
         offset="0"
         id="stop2" />
      <stop
         style="stop-color:#f9f9f9"
         offset="1"
         id="stop4" />
    </linearGradient>
    <linearGradient
       id="linearGradient4358"
       x1="88"
       x2="488"
       y1="88"
       y2="488"
       gradientUnits="userSpaceOnUse">
      <stop
         style="stop-color:#000000;stop-opacity:.58823532"
         offset="0"
         id="stop7" />
      <stop
         style="stop-color:#000000;stop-opacity:0"
         offset=".88"
         id="stop9" />
      <stop
         style="stop-color:#000000"
         offset="1"
         id="stop11" />
    </linearGradient>
    <filter
       id="filter4346"
       x="-.01"
       y="-.01"
       width="1.026"
       height="1.022"
       style="color-interpolation-filters:sRGB">
      <feGaussianBlur
         stdDeviation="2.12"
         id="feGaussianBlur14" />
    </filter>
    <filter
       inkscape:collect="always"
       style="color-interpolation-filters:sRGB"
       id="filter16020-3"
       x="-0.013632531"
       width="1.0272651"
       y="-0.010716653"
       height="1.0214334">
      <feGaussianBlur
         inkscape:collect="always"
         stdDeviation="2.0004419"
         id="feGaussianBlur16022-6" />
    </filter>
    <linearGradient
       gradientTransform="matrix(1.9895745,0,0,1.9895745,1.2510778,-209.21578)"
       id="paint0_linear"
       x1="90.464104"
       y1="68.551003"
       x2="90.814499"
       y2="187.84801"
       gradientUnits="userSpaceOnUse">
      <stop
         stop-color="#07B3FF"
         id="stop23" />
      <stop
         offset="1"
         stop-color="#007DE8"
         id="stop25" />
    </linearGradient>
    <linearGradient
       gradientTransform="matrix(1.9895745,0,0,1.9895745,1.251077,-209.64254)"
       id="paint0_linear-3"
       x1="128"
       y1="80"
       x2="128"
       y2="176.429"
       gradientUnits="userSpaceOnUse">
      <stop
         stop-color="#A6D74F"
         id="stop23-6" />
      <stop
         offset="1"
         stop-color="#76C22B"
         id="stop25-7" />
    </linearGradient>
    <linearGradient
       gradientTransform="matrix(1.9895745,0,0,1.6579788,1.2510698,-158.81323)"
       id="paint0_linear-5"
       x1="68"
       y1="68"
       x2="68"
       y2="188"
       gradientUnits="userSpaceOnUse">
      <stop
         offset="1e-07"
         stop-color="#46A926"
         id="stop23-3" />
      <stop
         offset="1"
         stop-color="#009A56"
         id="stop25-5" />
    </linearGradient>
    <linearGradient
       gradientTransform="matrix(1.9895745,0,0,1.9895745,-13.157445,-224.56648)"
       id="paint1_linear"
       x1="77.2267"
       y1="99.424301"
       x2="77.407799"
       y2="153.674"
       gradientUnits="userSpaceOnUse">
      <stop
         stop-color="#07B3FF"
         id="stop34" />
      <stop
         offset="1"
         stop-color="#007DE8"
         id="stop36" />
    </linearGradient>
    <linearGradient
       gradientTransform="matrix(1.9895745,0,0,1.9895745,-13.157445,-224.56648)"
       id="paint2_linear"
       x1="100.094"
       y1="106.857"
       x2="100.094"
       y2="166"
       gradientUnits="userSpaceOnUse">
      <stop
         stop-color="#FFEC57"
         id="stop39" />
      <stop
         offset="0.5"
         stop-color="#FFC551"
         id="stop41" />
      <stop
         offset="1"
         stop-color="#F5A90F"
         id="stop43" />
    </linearGradient>
    <linearGradient
       gradientTransform="matrix(1.9895745,0,0,1.9895745,-13.157445,-224.56648)"
       id="paint3_linear"
       x1="133.522"
       y1="91"
       x2="133.522"
       y2="149.257"
       gradientUnits="userSpaceOnUse">
      <stop
         stop-color="#FF6D57"
         id="stop46" />
      <stop
         offset="0.5"
         stop-color="#FF5160"
         id="stop48" />
      <stop
         offset="1"
         stop-color="#F50F22"
         id="stop50" />
    </linearGradient>
    <linearGradient
       gradientTransform="matrix(1.9895745,0,0,1.9895745,-1.8208049,-201.25745)"
       id="paint1_linear-6"
       x1="82"
       y1="68"
       x2="82"
       y2="188"
       gradientUnits="userSpaceOnUse">
      <stop
         offset="1e-07"
         stop-color="#00F260"
         id="stop2340" />
      <stop
         offset="1"
         stop-color="#0575E6"
         id="stop2342" />
    </linearGradient>
  </defs>
  <g
     transform="matrix(0.13297834,0,0,0.13297834,0.60582436,28.614877)"
     style="display:inline;stroke-width:0.25;enable-background:new"
     id="g17498">
    <g
       transform="translate(0,-3.4178172e-6)"
       style="display:inline;stroke-width:0.25;enable-background:new"
       id="g17498-7">
      <path
         style="display:inline;opacity:0.4;fill:#000000;fill-opacity:1;stroke:none;stroke-width:0.5;stroke-linejoin:round;stroke-miterlimit:4;stroke-dasharray:none;stroke-opacity:1;filter:url(#filter16020-3);enable-background:new"
         clip-path="none"
         d="m 111.82842,-178.55025 h 200 L 432,-58.878679 432.005,237.36136 c 3.1e-4,17.728 -14.44878,32.08839 -32.17678,32.08839 h -288 c -17.72799,0 -31.999992,-14.272 -31.999992,-32 v -384 c 0,-17.728 14.272002,-32 31.999992,-32 z"
         id="path6869-5"
         inkscape:connector-curvature="0"
         sodipodi:nodetypes="sccssssss" />
      <path
         sodipodi:nodetypes="sccssssss"
         inkscape:connector-curvature="0"
         id="rect2069-3"
         d="m 111.82842,-179.67158 h 200 L 432,-60 l 0.005,296.24003 c 3.1e-4,17.728 -14.44878,32.08839 -32.17678,32.08839 h -288 c -17.727992,0 -31.999992,-14.272 -31.999992,-32 v -384 c 0,-17.728 14.272,-32 31.999992,-32 z"
         clip-path="none"
         style="display:inline;opacity:1;fill:#f6f5f4;fill-opacity:1;stroke:none;stroke-width:0.5;stroke-linejoin:round;stroke-miterlimit:4;stroke-dasharray:none;stroke-opacity:1;enable-background:new" />
      <path
         inkscape:connector-curvature="0"
         style="display:inline;opacity:0.25;vector-effect:none;fill:#000000;fill-opacity:1;stroke:none;stroke-width:0.5;stroke-linecap:butt;stroke-linejoin:round;stroke-miterlimit:4;stroke-dasharray:none;stroke-dashoffset:0;stroke-opacity:1;enable-background:new"
         d="m 311.82842,-175.69243 v 88.000007 c 0,17.728 14.44211,31.693795 32.17011,31.693795 L 432,-56.020851 V -60 Z"
         id="path836"
         sodipodi:nodetypes="cscccc" />
      <path
         sodipodi:nodetypes="csccc"
         id="rect26812-5"
         d="m 311.82842,-179.67158 v 88.000008 c 0,17.728 14.44211,31.693795 32.17011,31.693795 L 432,-60 Z"
         style="display:inline;opacity:1;vector-effect:none;fill:#deddda;fill-opacity:1;stroke:none;stroke-width:0.5;stroke-linecap:butt;stroke-linejoin:round;stroke-miterlimit:4;stroke-dasharray:none;stroke-dashoffset:0;stroke-opacity:1;enable-background:new"
         inkscape:connector-curvature="0" />
    </g>
    <g
       id="g2012"
       transform="translate(51.26777,-7.9582971)">
      <g
         id="g3086"
         transform="translate(-0.93621987,-28.938184)">
        <g
           id="g3096"
           transform="translate(0,-14.573215)">
          <g
             transform="translate(0,9.6349131)"
             id="g3090">
            <path
               d="M 274.32079,95.877213 A 77.328384,77.328384 0 0 1 226.58469,167.31932 77.328384,77.328384 0 0 1 142.31298,150.55664 77.328384,77.328384 0 0 1 125.55029,66.28492 77.328384,77.328384 0 0 1 196.9924,18.548828 l 0,77.328385 z"
               sodipodi:end="4.712389"
               sodipodi:start="0"
               sodipodi:ry="77.328384"
               sodipodi:rx="77.328384"
               sodipodi:cy="95.877213"
               sodipodi:cx="196.9924"
               sodipodi:type="arc"
               id="path948"
               style="display:inline;opacity:1;vector-effect:none;fill:#4a86cf;fill-opacity:1;stroke:#204a87;stroke-width:0.00780064px;stroke-linecap:butt;stroke-linejoin:miter;stroke-miterlimit:4;stroke-dasharray:none;stroke-dashoffset:0;stroke-opacity:1;marker:none;marker-start:none;marker-mid:none;marker-end:none;paint-order:normal;enable-background:new" />
            <path
               d="m 214.17998,1.3612366 a 77.328384,77.328384 0 0 1 77.32838,77.3283844 l -77.32838,0 z"
               sodipodi:end="0"
               sodipodi:start="4.712389"
               sodipodi:ry="77.328384"
               sodipodi:rx="77.328384"
               sodipodi:cy="78.689621"
               sodipodi:cx="214.17998"
               sodipodi:type="arc"
               id="path956"
               style="display:inline;opacity:1;vector-effect:none;fill:#50db81;fill-opacity:1;stroke:#204a87;stroke-width:0.00780064px;stroke-linecap:butt;stroke-linejoin:miter;stroke-miterlimit:4;stroke-dasharray:none;stroke-dashoffset:0;stroke-opacity:1;marker:none;marker-start:none;marker-mid:none;marker-end:none;paint-order:normal;enable-background:new" />
          </g>
        </g>
      </g>
    </g>
  </g>
</svg>
